X: 1
T: John McFadden's Favourite
M: 4/4
L: 1/8
R: reel
K: Gmaj
G2FG EB,DB,|G,A,B,D EA,A,2|DGGF G2ef|gedc BcBA|
G/G/G FG E2DB,|G,A,B,D EA,A,2|DGGF G2ef|gedc BGG2||
~g2ga ag(3agf|gabg eaaf|g2dg bgag|(3efg dc BGG2|
~g2ga ag(3agf|gabg eaaf|~g2ga gfed|(3Bcd gd egdB||
